X: 40697
T: Torosay Castle
R: waltz
M: 3/4
K: Gmajor
|:GA B2 D2|BA G2 B2|AG F2 D2|FA G2 B2|
GA B2 D2|BA G2 B2|AG F2 A2|c/B/A/B/ G2 G2:|
|:Bc d2 G2|c/B/A/G/ F2 A2|AB c2 F2|d/c/B/A/ G2 B2|
Bc d2 B2|dF F2 A2|AB c2 F2|d/c/B/A/ G2 G2:|
|:D2 D2 FA|cD G2 B2|A/B/c/A/ F2 D2|B/c/d/B/ d2 B2|
D2 D2 FA|c/A/F/D/ G2 B2|A/B/c/A/ F2 d2|d/c/B/A/ G2 G2:|
|:Bc d2 G2|dG F2 d2|dF F2 d2|dF G2 d2|
Bc d2 G2|G/A/G/E/ F2 d2|dF F2 d2|d/c/B/A/ G2 G2:|

